storage/app/icons/phosphoricons/fill/grid-four-fill.svg

<svg xmlns="http://www.w3.org/2000/svg" fill="currentColor" viewBox="0 0 256 256"><path d="M216 56v60a4 4 0 0 1-4 4h-76V44a4 4 0 0 1 4-4h60a16 16 0 0 1 16 16M116 40H56a16 16 0 0 0-16 16v60a4 4 0 0 0 4 4h76V44a4 4 0 0 0-4-4m96 96h-76v76a4 4 0 0 0 4 4h60a16 16 0 0 0 16-16v-60a4 4 0 0 0-4-4m-172 4v60a16 16 0 0 0 16 16h60a4 4 0 0 0 4-4v-76H44a4 4 0 0 0-4 4"/></svg>

<svg xmlns="http://www.w3.org/2000/svg" viewBox="0 0 256 256" fill="currentColor"><path d="M216,56v60a4,4,0,0,1-4,4H136V44a4,4,0,0,1,4-4h60A16,16,0,0,1,216,56ZM116,40H56A16,16,0,0,0,40,56v60a4,4,0,0,0,4,4h76V44A4,4,0,0,0,116,40Zm96,96H136v76a4,4,0,0,0,4,4h60a16,16,0,0,0,16-16V140A4,4,0,0,0,212,136ZM40,140v60a16,16,0,0,0,16,16h60a4,4,0,0,0,4-4V136H44A4,4,0,0,0,40,140Z"/></svg>
